X:1
T: Jenny Nettle's Fancy
C:
R:Reel
Q: 232
K:D
M:4/4
L:1/8
|:BA AB dA FA|BA AB de fd|BA AB dA FA|de fd e2 d2|
BA AB dA FA|BA AB de fd|BA AB dA FA|de fd e2 d2|
df af bf af|df af g2 fe|df af bf af|de fd e2 d2|
df af bf af|bf af g2 fg|af ef dB AB|fa fd e2 d2:|
